Gruvbox-Plus-Dark/actions/16/dialog-ok-apply.svg

<svg xmlns="http://www.w3.org/2000/svg" width="16" height="16" viewBox="0 0 16 16">
 <defs>
  <style id="current-color-scheme" type="text/css">
   .ColorScheme-Text { color:#ebdbb2; } .ColorScheme-Highlight { color:#458588; }
  </style>
 </defs>
 <path style="fill:currentColor" class="ColorScheme-Text" d="M 13.138672 3.0292969 C 13.042461 3.0112201 12.942552 3.010175 12.839844 3.03125 C 12.620964 3.07855 12.419254 3.20178 12.277344 3.375 L 5.9960938 10.5625 L 3.7460938 8.3125 C 3.3697638 7.93612 2.6849937 7.93615 2.3085938 8.3125 C 1.9322437 8.68886 1.9322138 9.3736 2.3085938 9.75 L 5.3085938 12.75 L 6.0898438 13.5 L 6.7773438 12.6875 L 13.777344 4.6875 C 14.273836 4.1469863 13.812147 3.1558343 13.138672 3.0292969 z"/>
</svg>

<svg width="16" height="16" version="1.1" viewBox="0 0 16 16" xmlns="http://www.w3.org/2000/svg">
  <defs>
    <style type="text/css">.ColorScheme-Text { color:#ebdbb2; } .ColorScheme-Highlight { color:#458588; }</style>
  </defs>
  <path class="ColorScheme-Text" d="m13.15 3.014c-0.09654-0.01814-0.1968-0.01919-0.2998 0.00196-0.2196 0.04746-0.422 0.1711-0.5644 0.3449l-6.303 7.212-2.258-2.258c-0.3776-0.3777-1.065-0.3776-1.442 0-0.3776 0.3776-0.3777 1.065 0 1.442l3.01 3.01 0.7839 0.7525 0.6898-0.8153 7.024-8.027c0.4982-0.5423 0.03492-1.537-0.6408-1.664z" fill="currentColor" stroke-width="1.003"/>
</svg>
